X:72
T: The Sloe
R: polka
M: 2/4
L: 1/8
K: Dmaj
|: "D"d>A de | f>e dc | "G"B>A B/c/d/B/ | "A"~AF ED |
"D"d>A de | f>e dc | "G"B>A "A"Bc |1 "D"d2d/A/B/c/ :|2 "D"d2 dA/A/||
|: "D"~BA FA/A/ | ~BA Fd/d/ | "D"dc/c/ "A"cB/B/ | BA Ad/d/ |
"D"dc/c/ "A"ce/e/ | "D"ed df/f/ | "D"~fe "A"Bc |1 "D"d2 dA/A/ :|2 "D"d2 dA||

%%newpage

